X: 28370
T: Muineira De Lugo
R: jig
M: 6/8
K: Dmajor
A3- Adc|A3 Adc|ABA GFG|B A2- Adc|
A3- Adc|A3 Adc|ABA GFE|1 D3- D:|2 D3 F2 E||
|:F2 G AGF|E2 C G2 E|G2 A BAG|F2 D F2 E|
F2 G AGF|EFE GAG|FAF EAE|1 D3 F2 E:|2 D3- D||

